**kern	**kern	**dynam
*part1	*part1	*part1
*staff2	*staff1	*
*I"Piano	*	*
*clefF4	*clefG2	*
*k[b-e-]	*k[b-e-]	*
=1	=1	=1
4DD	(8f#XL 8a	.
.	8b- 8dd	.
8D 8A	8aJ 8cc	.
=	=	=
4GG	8gL 8b-	.
.	8a 8cc	.
8D 8G	8gJ) 8b-	.
=	=	=
4DD	(8f#XL 8a	.
.	8b- 8dd	.
8D 8A	8aJ 8cc	.
=	=	=
4DD	8gL 8b-	.
.	8a 8cc	.
8D 8F#X	8dJ) 8a	.
=	=	=
!	!	!LO:DY:a
4GG	(8BnL 8g	<
.	8d 8bn	.
8G 8Bn	8gJ) 8dd	[[
=	=	=
4CC	(8ee-L 8gg	.
.	8g	.
8E- 8c	8ee-J) 8gg	.
=	=	=
4DD	(8ddL 8ff	.
.	8b-X	.
8F 8B-X	8ddJ) 8ff	.
=	=	=
4DD	(8ccL 8ee-	.
.	8b- 8dd	.
8D 8F#X	8aJ 8cc	.
=	=	=
4DD	8gL 8b-	.
.	8a 8cc	.
8D 8F#X	8dJ) 8a	.
=:|!	=:|!	=:|!
!	!	!LO:DY:a
4DD	(8gL 8b-	p
.	8a 8cc	.
8D 8F#X	8dJ) 8a	.
=||	=||	=||
*-	*-	*-
!!!system-decoration: {(s1,s2)}
